X: 55
T: Akşamı Süzme Deniz
C: Kaptanzâde Ali Rıza Bey
O: Turkey
F: http://compmusic.upf.edu/node/140
N: nihavent--fantezi--nimsofyan--aksami_suzme--kaptanzade_ali_riza_bey
N: makam= nihavent
N: form= fantezi
N: usul= nimsofyan = 2/4
M: 2/4
L: 1/16
K: C _B _e  
Q: 1/4=72
%%MIDI tuningsystem comma53
d4 A4  | AccA B2G2  | z2de dcBA  | G2{A}GA BcBA  | 
w:  ARANAĞME  |   |   |   | 
dc2A B4  | B2AB cdcB  | ec2e d4  | zgec dB2d  | 
w:   |   |   |   | 
cB2G A4  | AD^FA c2BA  | G2de dcBA  | G2{A}GA BcBA  | 
w:   |   |   |   | 
dc2A B4  | B2AB cdcB  | ec2e d4  | zgec dB2d  | 
w:   |   |   |   | 
cB2G A4  | AD^FA c2BA  | G2de dcBA  | G2d2 G2z2  | 
w:   |   |   |   | 
z2GA B2{c}BA  | A3G cBAG  | d8  | d8  | z2cd e2{f}ed  | \
w:  Ak şa mı  *  süz  |  me  *  de  |  niz    |   |  Ren gin den  *  gö  | 
d3c dcBA  | 
w:  züm  *  yan  | 
B2GA B2G2  | FEDC B,A,G,2  | c4 d4  | B3A c2BA  | \
w:  dı   SAZ  |   |  En gin  |  de ki  pem be   | 
A2DE ^F2G2  | 
w:  iz   SAZ  | 
A2c2 B2A2  | G2{A}GA B2d2  | A3G BAG^F  | \
w:   |  *  *  Gön lüm de  hal  |  ka *  lan  | 
G2F2 E2D2  | C2B,2 A,2G,2  | 
w:  dı   SAZ  |   | 
z2GA B2{c}BA  | A3G cBAG  | d8  | d8  | z2cd e2{f}ed  | \
w:  Ak şa mı  *  süz  |  me  *  de  |  niz    |   |  Ren gin den  *  gö  | 
d3c dcBA  | 
w:  züm  *  yan  | 
B2GA B2G2  | FEDC B,A,G,2  | c4 d4  | B3A c2BA  | \
w:  dı   SAZ  |   |  En gin  |  de ki  pem be   | 
A2DE ^F2G2  | 
w:  iz   SAZ  | 
A2c2 B2A2  | G2{A}GA B2d2  | A3G BAG^F  | \
w:   |  *  *  Gön lüm de  hal  |  ka *  lan  | 
G2{A}GA B2c2  | d2e2 f2g2  | 
w:  dı   SAZ  |   | 
d4 g4  | g2fe f2ed  | d8  | d8  | e4 c4  | d2{f}ed dcc=B  | c8  | c8  | 
w:  Uf kun   |  kı zıl  *  a te  |  şi    |   |  Ya nan   |  der *  di *  min  *  e  |  şi    |   | 
d4 B4  | c2BA B2AG  | A2DE ^F2G2  | A2c2 B2A2  | \
w:  Rû hum   |  so lan  *  gü ne  |  şi   SAZ  |   | 
G2{A}GA B2d2  | 
w:  *  *  Gur be tin  gü  | 
A3G BAG^F  | G8  | GG2A B2c2  | d4 g4  | g2fe f2ed  | d8  | 
w:  lü  *  san  |  dı    |  *  SAZ  |  Uf kun   |  kı zıl  *  a te  |  şi    | 
d8  | e4 c4  | d2{f}ed dcc=B  | c8  | c8  | d4 B4  | \
w:   |  Ya nan   |  der *  di *  min  *  e  |  şi    |   |  Rû hum   | 
c2BA B2AG  | A2DE ^F2G2  | 
w:  so lan  *  gü ne  |  şi   SAZ  | 
A2c2 B2A2  | G2{A}GA B2d2  | A3G BAG^F  | G8  | \
w:   |  *  *  Gur be tin  gü  |  lü  *  san  |  dı    | 
G2d2 g2z2  | |


